X:125
T: Auf dieser Welt hab ich kein' Freud (2-5), S. 10
N: K1099
O: Luxemburg
S: KINTZELE, Guillaume: An der Ucht, Bd. 2, Luxemburg 1927]
N: in der Quelle mit einer 2. Stimme versehen
R: Sehnsucht, Trennung]
M: 3/4
L: 1/16
K: G
G2F2E2 | D4E2E2D2DC | B,4z2
D2G2A2 | B4B2B2A2A2 | G4z2
G2F2G2 | A3BA2DDG2A2 | B3cB2
G2G2B2 | d4d2d2c2c2 | B4z2
G2F2G2 | A3BA2DDG2A2 | B3cB2
G2G2B2 | d4d2d2c2c2 | B4z2

@@@ Tune index: 8179
